icons/body-scan-fill.svg

<svg xmlns="http://www.w3.org/2000/svg" width="24" height="24" fill="none"><g clip-path="url(#a)"><g><path fill="#121212" d="M4 16V20H8V22H2V16H4ZM22 16V22H16V20H20V16H22ZM7.5 7C7.5 8.19347 7.97411 9.33807 8.81802 10.182C9.66193 11.0259 10.8065 11.5 12 11.5C13.1935 11.5 14.3381 11.0259 15.182 10.182C16.0259 9.33807 16.5 8.19347 16.5 7H18.5C18.5002 8.18939 18.1741 9.35605 17.5571 10.3729C16.9402 11.3898 16.056 12.2179 15.001 12.767L15 19H9V12.768C7.94462 12.2189 7.06018 11.3907 6.44303 10.3737C5.82587 9.3566 5.49969 8.18967 5.5 7H7.5ZM12 5C12.663 5 13.2989 5.26339 13.7678 5.73223C14.2366 6.20107 14.5 6.83696 14.5 7.5C14.5 8.16304 14.2366 8.79893 13.7678 9.26777C13.2989 9.73661 12.663 10 12 10C11.337 10 10.7011 9.73661 10.2322 9.26777C9.76339 8.79893 9.5 8.16304 9.5 7.5C9.5 6.83696 9.76339 6.20107 10.2322 5.73223C10.7011 5.26339 11.337 5 12 5ZM8 2V4L4 3.999V8H2V2H8ZM22 2V8H20V4H16V2H22Z"/></g></g><defs><clipPath id="a"><rect width="24" height="24" fill="white"/></clipPath></defs></svg>

<svg width="24" height="24" fill="none" xmlns="http://www.w3.org/2000/svg"><g clip-path="url(#a)"><path d="M4 16v4h4v2H2v-6h2Zm18 0v6h-6v-2h4v-4h2ZM7.5 7a4.5 4.5 0 0 0 9 0h2a6.5 6.5 0 0 1-3.499 5.767L15 19H9v-6.232A6.5 6.5 0 0 1 5.5 7h2ZM12 5a2.5 2.5 0 1 1 0 5 2.5 2.5 0 0 1 0-5ZM8 2v2l-4-.001V8H2V2h6Zm14 0v6h-2V4h-4V2h6Z" /></g><defs><clipPath id="a"><path fill="#fff" d="M0 0h24v24H0z"/></clipPath></defs></svg>
